src/topics/icons/wire.svg

<svg height="174" preserveAspectRatio="xMidYMid" viewBox="0 0 512 174" width="512" xmlns="http://www.w3.org/2000/svg"><path d="m198.232009 108.466571c0 29.008555-23.359206 52.607167-52.394532 52.607167-11.694901 0-22.605042-3.875609-31.353654-10.344901 9.781955-11.374419 15.605694-26.124986 15.605694-42.262266l.021416-83.7099424c0-13.6506797-11.115892-24.7566286-24.77881-24.7566286-13.6629172 0-24.7788094 11.1059489-24.7788094 24.7566286l-.0214165 83.7099424c0 16.13728 6.2153541 30.887847 15.9973086 42.262266-8.7486118 6.469292-19.6587533 10.344901-31.3544189 10.344901-29.0345606 0-52.7853818-23.598612-52.7853818-52.607167v-102.11889402h-12.389405v102.11889402c0 35.831983 29.4391781 64.985098 65.30558 64.985098 15.2064304 0 29.308385-5.27915 40.396742-14.046883 11.087592 8.767733 24.864475 14.046883 40.070141 14.046883 35.866402 0 64.848951-29.153115 64.848951-64.985098v-102.11889402h-12.389405zm-92.921302 33.829546c-7.7175636-9.153994-12.3894049-20.951387-12.3894049-33.829546l.0214164-83.7099424c0-6.8264872 5.5575637-12.3779319 12.3894045-12.3779319 6.831077 0 12.389405 5.5514447 12.389405 12.3779319l-.021416 83.7099424c0 12.878159-4.671841 24.675552-12.389405 33.829546zm142.499727 27.876773h12.389404v-164.16076259h-12.389404zm120.858041-167.02283904c-24.448385 0-46.059858 12.35957494-58.911246 31.15096284v-28.28804503h-12.389405v164.15999823h12.389405v-95.7773361h.006884c0-32.4466569 26.42405-58.843937 58.904362-58.843937zm31.981385 140.82526804 51.266345-51.2663455 60.083795-60.0845603c-1.342351-1.5511614-2.746657-3.0671387-4.219802-4.5402832-33.210764-33.2107645-87.249007-33.2107645-120.459772 0-33.210764 33.2107645-33.210764 87.249008 0 120.459772 33.206176 33.206175 87.232946 33.210765 120.44524.014533l-8.76085-8.76085c-26.90592 26.889858-69.792322 28.279631-98.354956 4.177734zm-4.568584-107.1303392c26.905156-26.90439067 69.801501-28.29875327 98.369489-4.1922663l-102.561755 102.5617555c-24.106487-28.567989-22.712125-71.4650986 4.192266-98.3694892z"/></svg>

<?xml version="1.0" encoding="UTF-8"?>
<svg width="512px" height="174px" viewBox="0 0 512 174" version="1.1" xmlns="http://www.w3.org/2000/svg" xmlns:xlink="http://www.w3.org/1999/xlink" preserveAspectRatio="xMidYMid">
    <g>
        <path d="M198.232009,108.466571 C198.232009,137.475126 174.872803,161.073738 145.837477,161.073738 C134.142576,161.073738 123.232435,157.198129 114.483823,150.728837 C124.265778,139.354418 130.089517,124.603851 130.089517,108.466571 L130.110933,24.7566286 C130.110933,11.1059489 118.995041,-2.84217094e-14 105.332123,-2.84217094e-14 C91.6692058,-2.84217094e-14 80.5533136,11.1059489 80.5533136,24.7566286 L80.5318971,108.466571 C80.5318971,124.603851 86.7472512,139.354418 96.5292057,150.728837 C87.7805939,157.198129 76.8704524,161.073738 65.1747868,161.073738 C36.1402262,161.073738 12.389405,137.475126 12.389405,108.466571 L12.389405,6.34767698 L0,6.34767698 L0,108.466571 C0,144.298554 29.4391781,173.451669 65.30558,173.451669 C80.5120104,173.451669 94.613965,168.172519 105.702322,159.404786 C116.789914,168.172519 130.566797,173.451669 145.772463,173.451669 C181.638865,173.451669 210.621414,144.298554 210.621414,108.466571 L210.621414,6.34767698 L198.232009,6.34767698 L198.232009,108.466571 Z M105.310707,142.296117 C97.5931434,133.142123 92.9213021,121.34473 92.9213021,108.466571 L92.9427185,24.7566286 C92.9427185,17.9301414 98.5002822,12.3786967 105.332123,12.3786967 C112.1632,12.3786967 117.721528,17.9301414 117.721528,24.7566286 L117.700112,108.466571 C117.700112,121.34473 113.028271,133.142123 105.310707,142.296117 Z M247.810434,170.17289 L260.199838,170.17289 L260.199838,6.01212741 L247.810434,6.01212741 L247.810434,170.17289 Z M368.668475,3.15005096 C344.22009,3.15005096 322.608617,15.5096259 309.757229,34.3010138 L309.757229,6.01296877 L297.367824,6.01296877 L297.367824,170.172967 L309.757229,170.172967 L309.757229,74.3956309 L309.764113,74.3956309 C309.764113,41.948974 336.188163,15.5516939 368.668475,15.5516939 L368.668475,3.15005096 Z M400.64986,143.975319 L451.916205,92.7089735 L512,32.6244132 C510.657649,31.0732518 509.253343,29.5572745 507.780198,28.08413 C474.569434,-5.1266345 420.531191,-5.1266345 387.320426,28.08413 C354.109662,61.2948945 354.109662,115.333138 387.320426,148.543902 C420.526602,181.750077 474.553372,181.754667 507.765666,148.558435 L499.004816,139.797585 C472.098896,166.687443 429.212494,168.077216 400.64986,143.975319 Z M396.081276,36.8449798 C422.986432,9.94058913 465.882777,8.54622653 494.450765,32.6527135 L391.88901,135.214469 C367.782523,106.64648 369.176885,63.7493704 396.081276,36.8449798 Z" fill="#000000"></path>
    </g>
</svg>
